X:1
T:E minor Stephen Jenks, 1804
T:Isaac Watts, 1709 (Hymn 86, Book 2)    86. 86. (C. M.)
T:Repose
T:Transcribed from Jenks' Delights of Harmony, 1805.
%%score [ 1 2 3 4 ]
L:1/8
Q:1/4=100
M:2/4
K:G
V:1 treble nm="Treble" snm="Tr."
V:2 treble nm="Counter" snm="C."
V:3 treble-8 nm="Tenor" snm="T."
V:4 bass nm="Bass" snm="B."
V:1
 B4 | B2 Bc | d2 B2 | e2 ^d2 | e3 e | B2 BG | A2 Bc | ^d3 B | GA Bc | B3 B | B2 (3cde | ^d3 B | %12
w: 1.~Our|sins, a *|las! how|strong they|be, and|like a *|ra- ging *|sea; They|break * our *|du- ty,|Lord, to * *|thee, And|
 Be dc | B2 B2 | B4 |: z2 B2 | B2 B2 | B2 dc | B2 B2 | B3 G | A2 A2 | A2 G2 | F3 G | GB Bc | B3 G | %25
w: hur- * ry *|us a-|way.|||||||||||
 GB Bc | B4 | B2 Bc | B2 B2 |1 B4 :|2 B4- || B4 |] %32
w: |||||||
V:2
 E4 | E2 GA | G2 G2 | B2 B2 | B3 B | G2 G2 | F2 DG | F3 F | GF E^D | E3 B | G2 A2 | F3 G | G2 EF | %13
w: 2.~There,|to ful- *|fill his|sweet com-|mands, Our|spee- dy|feet shall *|move; No|sin * shall *|clog our|win- ged|zeal, Or|cool our *|
w: |||||||||||||
 G2 F2 | E4 |: z2"^{" E2 | G2 F2 | G2 D2 | EG F2 | G3 G | F2 F2 | F2 E2 | F3 B | BG GF | B3 B | %25
w: bur- ning|love.|The|waves of|trou- ble,|how * they|rise, How|loud the|tem- pests|roar! But|death * shall *|land our|
w: ||For|ev- er|his dear|sa- * cred|name Shall|dwell up-|on our|tongue, And|Je- * sus *|and sal-|
 BG GF | G4 | G2 GF | E2 ^DF |1"^}" E4 :|2 E4- || E4 |] %32
w: wea- * ry *|souls|safe on the|heav'n- ly *|shore.|||
w: va- * tion *|be|the close of|eve- ry *|song.|||
V:3
 E4 | EB BA | B2 EF | G2 F2 | E3 B | e2 de | d2 AG | B3 d | ef gf | e3 e | d2 (3ABc | B3 B | %12
w: 3.~There|shall * we *|sit, and *|sing, and|tell The|won- ders *|of his *|grace, Till|heav'n- * ly *|rap- tures|fire our * *|hearts, And|
 e2 BA | GE ^D2 | E4 |: z2 B2 | Be e^d | e2 f2 | ge ^d2 | e3 B | d2 d2 | d2 c2 | B3 B | GE E^D | %24
w: smile in *|eve- * ry|face.||||||||||
 E3 B | GE E^D | E4 | d2 B e/^d/ | e2 ^d2 |1 e4 :|2 e4- || e4 |] %32
w: ||||||||
V:4
 E,4 | E,2 E,F, | G,2 G,F, | E,2 B,,2 | E,3 E, | E,2 G,2 | D,2 D,E, | B,,3 B,, | E,D, E,B,, | %9
 E,3 E, | G,2 C2 | B,3 G, | E,2 G,A, | B,2 B,,2 | E,4 |: z2 E,2 | E,2 B,,2 | E,2 B,2 | G,A, B,2 | %19
 E,3 G, | D,2 D,2 | D,2 E,2 | B,,3 E, | E,2 E,B,, | E,3 E, | E,2 E,B,, | E,4 | G,2 G,A, | %28
 B,2 B,,2 |1 E,4 :|2 E,4- || E,4 |] %32

